X: 265
T: Pa laopuo
%%abc-version 2.0
%%abcx-abcm2ps-target-version 5.9.1 (29 Sep 2008)
%%abc-creator hum2abc beta
%%abcx-conversion-date 2013/10/02 07:52:29
%%abc-edited-by Helmut Schaffrath
%%humdrum-veritas 3405832412
%%humdrum-veritas-data 2014048469
%%continueall 1
%%barnumbers 0
L: 1/8
M: 2/4
K: Bb
d'3d' [I:setbarnb 1]| 
f' e'd'2 | 
a c' d' c' | 
g fd2 | 
d' a c' d' | 
d'> c' b a | 
d' a g d | 
f4 |]  



